!!!!SEGMENT: pl-kk--kk-i-122--002_anonim--alleluia-virga-iesse.krn
!!!cenid: 18xx:2548
!!!COM: Anonim
!!!COM-rismID: pe30004985
!!!CDT:
!!!CNT:
!!!OTL: Alleluia Virga Iesse No. 2
!!!PDT:
!!!AGN: Sacred
!!!SMS-siglum: PL-Kk
!!!SMS-shelfmark: Kk.I.122
!!!SMS-shelfwork: 002 W
!!!SMS-variant: Baſso PL-Kk KK.I.122:0013
!!!SMS-altvar: Baſsô PL-Kk KK.I.122:0002
!!!NIFC-rismSourceID: 1001153679
!!!NIFC-rismChildID: 1001153681
!!!NIFC-islandoraID: pl-kk:3474
!!!URL-pdf-islandora: https://repozytorium.nifc.pl/islandora/object/pl-kk%3A3474/datastream/PDF/view
!!!URL-scan: https://polish.musicsources.pl/pl/lokalizacje/galeria/rekopisy/5755 @EN{Scan on Polish Music Sources Website} @PL{Skany w portalu Dziedzictwo Muzyki Polskiej w otwartym dostępie}
!!!ONB-nifc: UWAGA: w zbiorze 5 Alleluia Virga Iesse. Numeracja plików zgodna ze źródłową.
!!!AIN: 1 alto 1 empty 1 tenor 1 vox
!!!key:
**kern	**text	**kern	**text	**kern	**text	**kern	**text
*part4	*part4	*part3	*part3	*part2	*part2	*part1	*part1
*staff4	*staff4	*staff3	*staff3	*staff2	*staff2	*staff1	*staff1
*Iempty	*	*Itenor	*	*Ialto	*	*Ivox	*
*I"Baſso	*	*I"Tenore	*	*I"Alto	*	*I"Canto	*
*I'B	*	*I'T	*	*I'A	*	*I'S	*
*clefF4	*	*clefC4	*	*clefC3	*	*clefC1	*
*k[]	*	*k[]	*	*k[]	*	*k[]	*
*C:	*	*C:	*	*C:	*	*C:	*
*M2/2	*	*M2/2	*	*M2/2	*	*M2/2	*
*met(c|)	*	*met(c|)	*	*met(c|)	*	*met(c|)	*
*2\right	*	*2\right	*	*2\right	*	*2\right	*
=1	=1	=1	=1	=1	=1	=1	=1
!LO:TX:a:t=N&colon;2	!	!	!	!	!	!	!
!	!	!LO:TX:a:t=Nro. 2	!	!	!	!	!
!	!	!	!	!LO:TX:a:t=Nro&colon; 2&colon;	!	!LO:TX:t=P:problem=all2\right&colon; global	!
!	!	!	!	!	!	!LO:TX:a:t=N&colon; 2	!
4r	.	4r	.	4r	.	4r	.
4C\	Al-	4G/	Al-	4g\	Al-	4ee\	Al-
4E\	-le-	4G/	-le-	4e\	-le-	4cc\	-le-
4G\	-lu-	4G/	-lu-	4d\	-lu-	4b\	-lu-
=2	=2	=2	=2	=2	=2	=2	=2
4C/	-ia	4G/	-ia	4e\	-ia	4cc\	-ia
4C/	al-	4c\	al-	4g\	al-	4ee\	al-
4E/	-le-	2c\	-le-	(4e\	-le-	4cc\	-le-
4C/	.	.	.	4g\)	.	4ee\	.
=3	=3	=3	=3	=3	=3	=3	=3
4F\	.	2c\	.	2f\	.	2a\	.
4D\	.	.	.	.	.	.	.
4G\	.	2G/	lu-	2f\	-lu-	2b\	-lu-
4GG/	-lu-	.	.	.	.	.	.
=4	=4	=4	=4	=4	=4	=4	=4
2C/	-ia.	2G/	-ia	2e\	-ia.	2cc\	-ia
2C/	Vir-	2r	.	[2g\	Vir-	2ee\	Vir-
=5	=5	=5	=5	=5	=5	=5	=5
2c\	.	2G/	Vir-	2g\]	.	2ee\	.
2G\	-ga	2B/	-ga	2f\	-ga	2dd\	-ga
=6	=6	=6	=6	=6	=6	=6	=6
!LO:LB:g=original	!	!LO:LB:g=original	!	!	!	!	!
4E/	Jeſ-	4G/	Jeſ-	4e\	Jeſ-	4cc\	Jeſ-
4C/	-se	4G/	-se	4g\	-se	4ee\	-se
4BB/	flo-	4G/	flo-	4f\	flo-	4dd\	flo-
4C/	-ru-	4G/	-ru-	4e\	-ru-	4cc\	-ru-
=7	=7	=7	=7	=7	=7	=7	=7
!	!	!	!	!LO:LB:g=original	!	!	!
2G\	-it:	2G/	-it:	2d\	-it:	2b\	-it:
4G\	Vir-	4d\	Vir-	4d\	Vir-	4b\	Vir-
4G\	-go	4c\	-go	4e\	-go	4cc\	-go
=8	=8	=8	=8	=8	=8	=8	=8
!	!	!	!	!	!	!LO:LB:g=original	!
2G\	De-	2B\	De-	2f\	De-	2dd\	De-
4c\	-um	4G/	-um	4e\	-um	4cc\	-um
4G\	et	4G/	et	4d\	et	4b\	et
=9	=9	=9	=9	=9	=9	=9	=9
4c\	ho-	4G\	ho-	4e\	ho-	4cc\	ho-
4G\	mi-	4B\	-mi-	4f\	-mi-	4dd\	-mi-
(>4E\	-nem	2c\	-nem	2g\	-nem	2ee\	-nem
4C/)	.	.	.	.	.	.	.
=10	=10	=10	=10	=10	=10	=10	=10
4G\	ge-	4B\	ge-	4f\	ge-	4dd\	ge-
4F#X\	.	4A\	.	4e\	.	4cc\	.
4G\	.	4d\	.	4d\	.	4b\	-nu-
4F#\	-nu-	4c\	-nu-	4e\	-nu-	4cc\	.
=11	=11	=11	=11	=11	=11	=11	=11
2G\	-it:	2G/	-it:	2d\	-it:	2b\	-it:
4B\	pa-	4G/	pa-	4f\	pa-	4dd\	pa-
4G\	-cem	4G/	-cem	4d\	-cem	4b\	-cem
=12	=12	=12	=12	=12	=12	=12	=12
!LO:LB:g=original	!	!LO:LB:g=original	!	!	!	!	!
4c\	De-	4c\	De-	4g\	De-	4ee\	De-
4G\	.	4B\	.	4f\	.	4dd\	.
4E\	.	2G/	-us	2e\	-us	2cc\	-us
4C/	-us	.	.	.	.	.	.
=13	=13	=13	=13	=13	=13	=13	=13
!	!	!	!	!LO:LB:g=original	!	!	!
4G\	red-	4G\	red-	4d\	red-	4b\	red-
4F#X\	.	4d\	.	4c\	.	4a\	.
4G\	.	2d\	-di-	4B\	.	4g\	.
4D\	-di-	.	.	4c\	-di-	4a\	-di-
=14	=14	=14	=14	=14	=14	=14	=14
!	!	!	!	!	!	!LO:LB:g=original	!
2GG/	-dit,	2d\	-dit,	2B/	-dit,	2g/	-dit
4GG/	in	4d\	in	4B/	in	4g/	in
4G\	se	4f\	se	4d/	se	4b/	se
=15	=15	=15	=15	=15	=15	=15	=15
4G\	re-	4e\	re-	4c\	re-	4g\	re-
4Fn\	.	4d\	.	4d\	.	4b\	.
4E\	-con-	4c\	-con-	4e\	-con-	4cc\	con-
4D\	.	4B\	.	4f\	.	4dd\	.
=16	=16	=16	=16	=16	=16	=16	=16
2C/	-ci-	2c\	-ci-	4g\	-ci-	(4ee\	-ci-
.	.	.	.	4a\	.	4ff\)	.
4C/	-li-	4c\	-li-	4g\	-li-	4ee\	-li-
4BB/	-ans	4G/	-ans	4f\	-ans	4dd\	-ans
=17	=17	=17	=17	=17	=17	=17	=17
4C\	i-	4G/	i-	4e\	i-	4cc\	i-
4E\	-ma	4G/	-ma	4e\	-ma	4cc\	-ma
4G\	sum-	2G/	sum-	2d\	sum-	2b\	sum-
4GG/	.	.	.	.	.	.	.
=18	=18	=18	=18	=18	=18	=18	=18
!LO:LB:g=original	!	!LO:LB:g=original	!	!	!	!	!
2C/	-mis	2G/	-mis	2e\	-mis	2cc\	-mis
4G\	al-	4d\	al-	4d\	al-	4b\	al-
4G\	-le-	4c\	-le-	4e\	-le-	4cc\	-le-
=19	=19	=19	=19	=19	=19	=19	=19
!	!	!	!	!LO:LB:g=original	!	!LO:LB:g=original	!
1G	-lu-	2B\	-lu-	2f\	-lu-	2dd\	-lu-
.	.	2G/	.	4e\	.	4cc\	.
.	.	.	.	4d\	.	4b\	.
=20	=20	=20	=20	=20	=20	=20	=20
2C/	-ia	2G/	-ia	2e\	-ia	2cc\	-ia
2E\	al-	2c\	al-	2g\	al-	2ee\	al-
=21	=21	=21	=21	=21	=21	=21	=21
2F\	-le-	2A/	-le-	2f\	-le-	2dd\	-le-
2G\	-lu-	2G/	-lu-	2d\	-lu-	2b\	-lu-
=22	=22	=22	=22	=22	=22	=22	=22
2C/	-ia.	2G/	-ia.	2e\	-ia	2cc\	-ia
!LO:TX:t=P:problem=na kresce podwójna fermata	!	!LO:TX:t=P:problem=na kresce podwójna fermata	!	!LO:TX:t=P:problem=na kresce podwójna fermata	!	!	!
2r	.	2r	.	2r	.	2r	.
==	==	==	==	==	==	==	==
*-	*-	*-	*-	*-	*-	*-	*-
!!!system-decoration: [(s1,s2,s3,s4)]
!!!RDF**kern: > = above
!!!RDF**kern: < = below
!!!ENC: Kamil Watkowski
!!!END: 2021-08-05
!!!YEC: Copyright 2022 Narodowy Instytut Fryderyka Chopina (https://polishscores.org)
!!!YEM: License CC-BY-4.0 (https://creativecommons.org/licenses/by/4.0)
